X:480
T: Chishui buwang dajingren
N: C2099
O: China,Shanxi Qinyuan
S: I, 296, 2)]
R: Wuge, Yangge Maiyengtao]
M: 2/4
L: 1/16
K: C
c4c2E2 | G6A2 | c3dg2d2 | c8 |
c2B2A2g2 | g2B2d2e2 | c2B2A2E2 | G8 |
d3gA2c2 | d2g2e2d2 | c2Bcd2A2 | G6D2 |
d2d2c2d2 | g2d2c2B2 | A2GAG2D2 | C8 |
A2G2E2DE | G6A2 | d2d2c2d2 | g2d2c2B2 | A2GAG2D2 | C8

@@@ Tune index: 7035
